symbols/web/toys/materialsymbolsoutlined/toys_wght500grad200fill1_40px.svg

<svg xmlns="http://www.w3.org/2000/svg" height="40" width="40"><path d="M11.542 34.25q-1.917 0-3.417-1.312-1.5-1.313-1.833-3.355-1.709-1-2.688-2.625-.979-1.625-.979-3.583 0-2.25 1.292-4.083 1.291-1.834 3.416-2.542L4.25 13.583l-.542.542q-.5.542-1.166.521-.667-.021-1.167-.563-.5-.5-.521-1.145-.021-.646.479-1.146L4.792 8.25q.458-.5 1.146-.479.687.021 1.145.521.5.5.521 1.166.021.667-.479 1.167l-.5.583 2.458 2.625 1.5-4.375q.584-1.666 1.959-2.708 1.375-1.042 3.083-1.042h8.958q1.709 0 3.105 1.021 1.395 1.021 1.937 2.729l2.208 7.042q2.459.458 4.063 2.354Q37.5 20.75 37.5 23.375q0 1.958-.979 3.583-.979 1.625-2.688 2.667-.291 2-1.812 3.313-1.521 1.312-3.479 1.312-1.709 0-3.084-1.083-1.375-1.084-1.916-2.709h-6.959q-.541 1.667-1.937 2.73-1.396 1.062-3.104 1.062Zm.541-17.917h6.25V9.292h-2.666q-.584 0-1.021.375-.438.375-.604.875Zm9.584 0H28l-1.833-5.791q-.209-.5-.625-.875-.417-.375-1-.375h-2.875ZM11.583 30.792q.834 0 1.396-.563.563-.562.563-1.437 0-.834-.563-1.396-.562-.563-1.396-.563-.833 0-1.416.563-.584.562-.584 1.396 0 .833.563 1.416.562.584 1.437.584Zm16.959 0q.875 0 1.437-.563.563-.562.563-1.437 0-.834-.563-1.396-.562-.563-1.396-.563-.875 0-1.437.563-.563.562-.563 1.396 0 .833.563 1.416.562.584 1.396.584Z"/></svg>

<svg xmlns="http://www.w3.org/2000/svg" height="40" width="40"><path d="M11.542 34.25Q9.625 34.25 8.125 32.938Q6.625 31.625 6.292 29.583Q4.583 28.583 3.604 26.958Q2.625 25.333 2.625 23.375Q2.625 21.125 3.917 19.292Q5.208 17.458 7.333 16.75L4.25 13.583L3.708 14.125Q3.208 14.667 2.542 14.646Q1.875 14.625 1.375 14.083Q0.875 13.583 0.854 12.938Q0.833 12.292 1.333 11.792L4.792 8.25Q5.25 7.75 5.938 7.771Q6.625 7.792 7.083 8.292Q7.583 8.792 7.604 9.458Q7.625 10.125 7.125 10.625L6.625 11.208L9.083 13.833L10.583 9.458Q11.167 7.792 12.542 6.75Q13.917 5.708 15.625 5.708H24.583Q26.292 5.708 27.688 6.729Q29.083 7.75 29.625 9.458L31.833 16.5Q34.292 16.958 35.896 18.854Q37.5 20.75 37.5 23.375Q37.5 25.333 36.521 26.958Q35.542 28.583 33.833 29.625Q33.542 31.625 32.021 32.938Q30.5 34.25 28.542 34.25Q26.833 34.25 25.458 33.167Q24.083 32.083 23.542 30.458H16.583Q16.042 32.125 14.646 33.188Q13.25 34.25 11.542 34.25ZM12.083 16.333H18.333V9.292H15.667Q15.083 9.292 14.646 9.667Q14.208 10.042 14.042 10.542ZM21.667 16.333H28L26.167 10.542Q25.958 10.042 25.542 9.667Q25.125 9.292 24.542 9.292H21.667ZM11.583 30.792Q12.417 30.792 12.979 30.229Q13.542 29.667 13.542 28.792Q13.542 27.958 12.979 27.396Q12.417 26.833 11.583 26.833Q10.75 26.833 10.167 27.396Q9.583 27.958 9.583 28.792Q9.583 29.625 10.146 30.208Q10.708 30.792 11.583 30.792ZM28.542 30.792Q29.417 30.792 29.979 30.229Q30.542 29.667 30.542 28.792Q30.542 27.958 29.979 27.396Q29.417 26.833 28.583 26.833Q27.708 26.833 27.146 27.396Q26.583 27.958 26.583 28.792Q26.583 29.625 27.146 30.208Q27.708 30.792 28.542 30.792Z"/></svg>
